src/images/svg/deriv-go/deriv-go-logo.svg

<svg width="40" height="40" viewBox="0 0 40 40" fill="none" xmlns="http://www.w3.org/2000/svg">
<path d="M0 7.5C0 3.35786 3.35786 0 7.5 0H32.5C36.6421 0 40 3.35786 40 7.5V32.5C40 36.6421 36.6421 40 32.5 40H7.5C3.35786 40 0 36.6421 0 32.5V7.5Z" fill="#0E0E0E"/>
<path d="M7.45952 15.0002L11.2879 20.0002L5.15149 25.0002H11.3535C12.2325 25.0004 13.0858 24.7004 13.7738 24.1532C14.4617 23.6061 14.9439 22.842 15.1416 21.9855L15.6551 19.7612C15.7867 19.1914 15.7879 18.5992 15.6588 18.0289C15.5297 17.4585 15.2736 16.9247 14.9095 16.4671C14.5454 16.0094 14.0828 15.6399 13.556 15.3859C13.0293 15.132 12.452 15.0001 11.8672 15.0002H7.45952Z" fill="url(#paint0_linear_7468_25989)"/>
<path d="M11.2879 20.0002L8.56058 25.0002H5.15149L11.2879 20.0002Z" fill="#CC2E3D"/>
<path d="M34.5941 17.4798C34.4095 16.9875 34.1231 16.5397 33.7534 16.1657C33.3838 15.7918 32.9393 15.5001 32.4492 15.3099C31.9411 15.1044 31.3647 15.0003 30.7347 15.0003C30.2575 14.9987 29.7826 15.0652 29.3243 15.1977C28.8812 15.3267 28.4589 15.519 28.0707 15.7686C27.684 16.0191 27.3328 16.3205 27.0265 16.6647C26.7098 17.0218 26.4425 17.4199 26.2317 17.8482C26.0091 18.2995 25.84 18.7753 25.728 19.2659C25.7145 19.3232 25.7047 19.3827 25.6917 19.4408H20.9953L20.5754 21.4587H22.7112C22.6539 21.5537 22.5915 21.6455 22.5243 21.7338C22.3051 22.0245 22.0274 22.2661 21.7092 22.443C21.4093 22.6086 21.0718 22.6941 20.7292 22.6912C20.488 22.6957 20.2484 22.6504 20.0255 22.558C19.8257 22.4725 19.6472 22.3439 19.5029 22.1813C19.3494 22.0037 19.2319 21.798 19.1566 21.5756C19.0684 21.3106 19.0255 21.0327 19.0296 20.7535C19.0258 20.2832 19.0964 19.8153 19.239 19.3671C19.3641 18.9698 19.5553 18.5964 19.8045 18.2627C20.0241 17.9698 20.3028 17.7264 20.6225 17.5481C20.922 17.3812 21.2596 17.2947 21.6025 17.2969C21.8401 17.2933 22.0758 17.3389 22.295 17.4309C22.4939 17.5172 22.6715 17.6461 22.8154 17.8083C22.9695 17.9865 23.0871 18.1931 23.1616 18.4166L25.536 17.4798C25.3517 16.9877 25.0656 16.5401 24.6964 16.1662C24.3272 15.7922 23.8833 15.5004 23.3936 15.3099C22.8854 15.1044 22.3091 15.0003 21.6791 15.0003C21.2019 14.9987 20.727 15.0652 20.2687 15.1977C19.8256 15.3268 19.4034 15.5191 19.0151 15.7686C18.6285 16.0192 18.2773 16.3206 17.9709 16.6647C17.654 17.0215 17.3863 17.4192 17.175 17.8471C16.9527 18.2988 16.784 18.775 16.6724 19.2659C16.5516 19.798 16.492 20.3422 16.4945 20.8878C16.4903 21.4404 16.5909 21.9888 16.791 22.504C16.9805 22.9928 17.2683 23.4375 17.6367 23.8105C18.0122 24.1848 18.4601 24.4784 18.953 24.6736C19.4612 24.879 20.0339 24.9832 20.6552 24.9832C21.1317 24.985 21.6059 24.9184 22.0634 24.7854C22.5044 24.6564 22.9249 24.4656 23.3123 24.2185C23.6993 23.9696 24.0502 23.6686 24.355 23.3238C24.6701 22.9666 24.9373 22.5699 25.1498 22.1436C25.2609 21.9225 25.3579 21.6946 25.4402 21.4613C25.4833 21.3389 25.5233 21.2137 25.5596 21.0867C25.5749 21.5728 25.6722 22.0528 25.8474 22.5065C26.0368 22.9953 26.3247 23.44 26.693 23.8131C27.069 24.1865 27.5171 24.4793 28.0101 24.6736C28.5182 24.879 29.0909 24.9832 29.7123 24.9832C30.1887 24.985 30.6629 24.9184 31.1205 24.7854C31.5615 24.6564 31.9819 24.4656 32.3693 24.2185C32.7564 23.9696 33.1073 23.6686 33.412 23.3238C33.7272 22.9666 33.9944 22.5699 34.2069 22.1436C34.4314 21.6903 34.6 21.2115 34.7092 20.7176C34.8272 20.1846 34.8857 19.6401 34.8834 19.0942C34.8876 18.5428 34.7896 17.9954 34.5941 17.4798ZM32.1403 20.6374C32.0172 21.0322 31.8275 21.403 31.5792 21.7338C31.36 22.0245 31.0823 22.2661 30.7641 22.443C30.4642 22.6086 30.1267 22.6941 29.7841 22.6912C29.5431 22.6951 29.304 22.6493 29.0815 22.5566C28.8816 22.4711 28.7032 22.3424 28.5589 22.1799C28.4055 22.0021 28.288 21.7964 28.2126 21.5741C28.1247 21.3097 28.0819 21.0325 28.086 20.7539C28.0822 20.2836 28.153 19.8156 28.2957 19.3675C28.4208 18.9703 28.6119 18.5969 28.8608 18.2631C29.0807 17.9701 29.3596 17.7265 29.6796 17.5481C29.9791 17.3812 30.3167 17.2947 30.6595 17.2969C30.8971 17.2933 31.1329 17.3389 31.352 17.4309C31.5509 17.5172 31.7286 17.6461 31.8725 17.8083C32.027 17.9864 32.1452 18.193 32.2202 18.4166C32.3081 18.6807 32.3513 18.9577 32.3479 19.2361C32.3522 19.7107 32.2821 20.183 32.1403 20.6359V20.6374Z" fill="white"/>
<defs>
<linearGradient id="paint0_linear_7468_25989" x1="11.8509" y1="13.2772" x2="9.85906" y2="25.8413" gradientUnits="userSpaceOnUse">
<stop stop-color="#FF6444"/>
<stop offset="1" stop-color="#FF444F"/>
</linearGradient>
</defs>
</svg>

<svg width="40" height="40" fill="none" xmlns="http://www.w3.org/2000/svg"><path d="M0 7.5A7.5 7.5 0 0 1 7.5 0h25A7.5 7.5 0 0 1 40 7.5v25a7.5 7.5 0 0 1-7.5 7.5h-25A7.5 7.5 0 0 1 0 32.5v-25Z" fill="#0E0E0E"/><path d="m7.46 15 3.828 5-6.137 5h6.203a3.89 3.89 0 0 0 3.788-3.015l.513-2.224a3.886 3.886 0 0 0-3.788-4.76H7.46Z" fill="url(#a)"/><path d="M11.288 20 8.56 25H5.15l6.137-5Z" fill="#CC2E3D"/><path d="M34.594 17.48a3.734 3.734 0 0 0-2.145-2.17 4.555 4.555 0 0 0-1.714-.31 5.018 5.018 0 0 0-1.41.198 4.798 4.798 0 0 0-1.254.57c-.387.251-.738.552-1.045.897a5.333 5.333 0 0 0-.794 1.183 6.45 6.45 0 0 0-.504 1.418c-.014.057-.023.117-.036.175h-4.697l-.42 2.018h2.136c-.057.095-.12.186-.187.275-.219.29-.497.532-.815.709-.3.166-.637.251-.98.248-.241.005-.48-.04-.703-.133a1.474 1.474 0 0 1-.523-.377 1.817 1.817 0 0 1-.346-.605 2.487 2.487 0 0 1-.127-.823c-.004-.47.066-.938.209-1.386.125-.397.316-.77.566-1.104.22-.293.498-.537.817-.715.3-.167.638-.253.98-.251.238-.004.474.042.693.134.199.086.377.215.52.377a1.8 1.8 0 0 1 .347.609l2.374-.937a3.733 3.733 0 0 0-2.142-2.17 4.556 4.556 0 0 0-1.715-.31 5.018 5.018 0 0 0-1.41.198c-.443.129-.866.321-1.254.57-.387.251-.738.553-1.044.897a5.343 5.343 0 0 0-.796 1.182 6.453 6.453 0 0 0-.503 1.419 7.178 7.178 0 0 0-.178 1.622 4.372 4.372 0 0 0 .297 1.616c.19.489.477.933.846 1.306.375.375.823.668 1.316.864.508.205 1.08.31 1.702.31.477.001.95-.066 1.408-.199a4.86 4.86 0 0 0 2.292-1.461c.315-.357.582-.754.795-1.18a5.866 5.866 0 0 0 .41-1.057c.015.486.112.966.287 1.42.19.488.478.933.846 1.306.376.373.824.666 1.317.86.508.206 1.08.31 1.702.31.477.002.95-.065 1.409-.198a4.858 4.858 0 0 0 2.291-1.461c.315-.357.582-.754.795-1.18.224-.454.393-.932.502-1.426a7.367 7.367 0 0 0 .174-1.624 4.458 4.458 0 0 0-.289-1.614Zm-2.454 3.157a3.622 3.622 0 0 1-.56 1.097c-.22.29-.498.532-.816.709-.3.166-.637.251-.98.248a1.753 1.753 0 0 1-.703-.134 1.474 1.474 0 0 1-.522-.377 1.824 1.824 0 0 1-.346-.606 2.484 2.484 0 0 1-.127-.82 4.45 4.45 0 0 1 .21-1.387c.125-.397.316-.77.565-1.104.22-.293.499-.537.819-.715.3-.167.637-.253.98-.251.237-.004.473.042.692.134.199.086.377.215.52.377.155.178.273.385.348.609.088.264.131.54.128.82.004.474-.066.946-.208 1.399v.001Z" fill="#fff"/><defs><linearGradient id="a" x1="11.851" y1="13.277" x2="9.859" y2="25.841" gradientUnits="userSpaceOnUse"><stop stop-color="#FF6444"/><stop offset="1" stop-color="#FF444F"/></linearGradient></defs></svg>
